X: 560
T: The blackberry blossom
C: anon.
O: Ireland
B: Francis O'Neill: "The Dance Music of Ireland" (1907) no. 560
R: Reel
Z: Transcribed by Frank Nordberg - http://www.musicaviva.com
F: http://www.musicaviva.com/abc/tunes/ireland/oneill-1001/oneill-1001-056
0.abc
M: C|
L: 1/8
K: Ador
(ge)|dBAc BAGA|BcBA B2(ge)|dBAc BGGB|Aaag a2:|(ef)|gfge gbaf|
gfga beef|gfga bagf|eaag a2(ef)|gfge gbaf|gfga beeg|(3(bag) af gfed|eaaga
2|]
W:
W:
W: The time signatures are missing on page 104 in the book
W: (tunes nos. 560-566)
W:
W:
W: From Musica Viva - http://www.musicaviva.com
W: the Internet center for free sheet music downloads.


